src/assets/images/Icons/Yin.svg

<svg viewBox="0 0 24 24" fill="none" xmlns="http://www.w3.org/2000/svg"><g id="SVGRepo_bgCarrier" stroke-width="0"></g><g id="SVGRepo_tracerCarrier" stroke-linecap="round" stroke-linejoin="round"></g><g id="SVGRepo_iconCarrier"> <path d="M14.5714 15.0036L15.4286 16.8486C15.4286 16.8486 19.2857 17.6678 19.2857 19.6162C19.2857 21 17.5714 21 17.5714 21H13L10.75 19.75" stroke="#f5dbbc" stroke-width="1.5" stroke-linecap="round" stroke-linejoin="round"></path> <path d="M9.42864 15.0036L8.5715 16.8486C8.5715 16.8486 4.71436 17.6678 4.71436 19.6162C4.71436 21 6.42864 21 6.42864 21H8.50007L10.7501 19.75L13.5001 18" stroke="#f5dbbc" stroke-width="1.5" stroke-linecap="round" stroke-linejoin="round"></path> <path d="M3 15.9261C3 15.9261 5.14286 15.4649 6.42857 15.0036C7.71429 8.54595 11.5714 9.00721 12 9.00721C12.4286 9.00721 16.2857 8.54595 17.5714 15.0036C18.8571 15.4649 21 15.9261 21 15.9261" stroke="#f5dbbc" stroke-width="1.5" stroke-linecap="round" stroke-linejoin="round"></path> <path d="M12 7C13.1046 7 14 6.10457 14 5C14 3.89543 13.1046 3 12 3C10.8954 3 10 3.89543 10 5C10 6.10457 10.8954 7 12 7Z" stroke="#f5dbbc" stroke-width="1.5" stroke-linecap="round" stroke-linejoin="round"></path> </g></svg>

<svg xmlns="http://www.w3.org/2000/svg" width="60" height="60" viewBox="0 0 24 24"><g fill="none" stroke="#cf9a71" stroke-linecap="round" stroke-linejoin="round" stroke-width="1.5"><path d="m14.571 15.004l.858 1.845s3.857.819 3.857 2.767C19.286 21 17.57 21 17.57 21H13l-2.25-1.25"/><path d="m9.429 15.004l-.857 1.845s-3.858.819-3.858 2.767C4.714 21 6.43 21 6.43 21H8.5l2.25-1.25L13.5 18"/><path d="M3 15.926s2.143-.461 3.429-.922C7.714 8.546 11.57 9.007 12 9.007s4.286-.461 5.571 5.997c1.286.46 3.429.922 3.429.922M12 7a2 2 0 1 0 0-4a2 2 0 0 0 0 4"/></g></svg>
